X: 95
T:Here's A Health To All Good Lasses. WI.095
M:C|
L:1/8
Q:180
C:"air for violin  piano duet"
S:Wm Irwin, Folio MS, c1850. AGG's Transcription
R:Air
O:England
A:Lake District
Z:vmp.Chris Partington.2005
K:D
d2e f2d2|g2f2 e2d2|f3g a2f2|b2a2g2f2|!
a3a a2a2|b2a2 g2f2|g2g2 g2g2|a2g2 f2e2|!
a3a b3b|a2A2d4|b3b a2f2|g2e2 d4|]
